assets/img/developer-code.svg

<svg fill="none" height="479" viewBox="0 0 680 479" width="680" xmlns="http://www.w3.org/2000/svg"><g fill="#64748b"><path d="m39.8585 220.357 164.9085-110.123c7.183-4.798 9.126-14.5145 4.317-21.7084-4.798-7.1835-14.509-9.1323-21.708-4.3177l-164.9085 110.1231c-14.07187 9.389-22.4675 25.104-22.4675 42.02 0 16.915 8.39535 32.632 22.4675 42.02l164.9085 110.122c2.669 1.785 5.687 2.637 8.679 2.637 5.054 0 10.016-2.44 13.029-6.954 4.804-7.189 2.866-16.912-4.317-21.709l-164.9083-110.128c-5.4313-3.631-8.5537-9.455-8.5537-15.994 0-6.534 3.1224-12.353 8.5537-15.988z"/><path d="m657.527 194.324-164.922-110.1175c-7.184-4.8036-16.912-2.8658-21.709 4.3177-4.804 7.189-2.866 16.9118 4.318 21.7088l164.908 110.123c5.431 3.63 8.553 9.454 8.553 15.987 0 6.534-3.117 12.364-8.553 15.994l-164.894 110.128c-7.184 4.798-9.127 14.515-4.318 21.709 3.013 4.514 7.975 6.954 13.03 6.954 2.98 0 6.01-.852 8.679-2.636l164.908-110.123c14.072-9.389 22.467-25.105 22.467-42.02 0-16.921-8.395-32.632-22.467-42.026z"/><path d="m416.069.74227c-8.231-2.62014-17.035 1.91598-19.667 10.14753l-142.633 446.9192c-2.631 8.231 1.916 17.035 10.147 19.667 1.583.502 3.183.742 4.76.742 6.627 0 12.779-4.241 14.908-10.901l142.633-446.9046c2.631-8.237-1.916-17.03581-10.147-19.667123z"/></g></svg>

<svg width="680" height="479" viewBox="0 0 680 479" fill="none" xmlns="http://www.w3.org/2000/svg">
<path d="M39.8585 220.357L204.767 110.234C211.95 105.436 213.893 95.7195 209.084 88.5256C204.286 81.3421 194.575 79.3933 187.376 84.2079L22.4675 194.331C8.39563 203.72 0 219.435 0 236.351C0 253.266 8.39535 268.983 22.4675 278.371L187.376 388.493C190.045 390.278 193.063 391.13 196.055 391.13C201.109 391.13 206.071 388.69 209.084 384.176C213.888 376.987 211.95 367.264 204.767 362.467L39.8587 252.339C34.4274 248.708 31.305 242.884 31.305 236.345C31.305 229.811 34.4274 223.992 39.8587 220.357L39.8585 220.357Z" fill="#64748b"/>
<path d="M657.527 194.324L492.605 84.2065C485.421 79.4029 475.693 81.3407 470.896 88.5242C466.092 95.7132 468.03 105.436 475.214 110.233L640.122 220.356C645.553 223.986 648.675 229.81 648.675 236.343C648.675 242.877 645.558 248.707 640.122 252.337L475.228 362.465C468.044 367.263 466.101 376.98 470.91 384.174C473.923 388.688 478.885 391.128 483.94 391.128C486.92 391.128 489.95 390.276 492.619 388.492L657.527 278.369C671.599 268.98 679.994 253.264 679.994 236.349C679.994 219.428 671.599 203.717 657.527 194.323L657.527 194.324Z" fill="#64748b"/>
<path d="M416.069 0.74227C407.838 -1.87787 399.034 2.65825 396.402 10.8898L253.769 457.809C251.138 466.04 255.685 474.844 263.916 477.476C265.499 477.978 267.099 478.218 268.676 478.218C275.303 478.218 281.455 473.977 283.584 467.317L426.217 20.4124C428.848 12.1754 424.301 3.37659 416.07 0.745277L416.069 0.74227Z" fill="#64748b"/>
</svg>
